2020/04-Sprint-07-Oekologischer-Fußabdruck/kk-variation/assets/flugzeug.svg

<svg xmlns="http://www.w3.org/2000/svg" width="54" height="35" viewBox="0 0 54 35">
  <g fill="#4C4B4B">
    <path d="M53.1770977,1.89983372 C52.656269,0.782459018 51.5669557,0.0661683756 50.3346745,0.0301240305 L49.5789528,0.00811037008 C46.5618718,-0.0811538134 43.4804432,0.567886306 40.6614851,1.88290013 L13.8440085,14.3876269 L4.94153911,11.708008 C4.799297,11.6651902 4.64641092,11.676318 4.51166796,11.7392142 L0.349150877,13.6802868 C0.144738316,13.7755987 0.0104791779,13.9766246 0.000560935273,14.2018413 C-0.00911539898,14.4272999 0.107000612,14.6392116 0.302220656,14.7521828 L14.8317203,23.1495475 C16.3223596,24.0107413 18.1429619,24.0910549 19.7025451,23.3633945 L28.5319582,19.2461143 L28.7097608,33.3474362 C28.7155666,33.8119003 28.9751343,34.2340303 29.3868623,34.4490869 C29.5707127,34.5451245 29.7712547,34.5925385 29.9708291,34.5925385 C30.2183013,34.5925385 30.4650479,34.5194822 30.6779272,34.3753048 C32.9448504,32.8394287 34.4969344,30.5163827 35.0482436,27.8343448 L37.6913343,14.9747385 L45.1454984,11.4987573 C47.9649403,10.1842273 50.4435333,8.23855837 52.3134849,5.87269465 L52.7825452,5.27929345 C53.5469756,4.31214384 53.6981683,3.01720841 53.1770977,1.89983372 Z M51.8335387,4.52913564 L51.3647203,5.12253684 C49.6111266,7.34132028 47.2837263,9.16724455 44.634346,10.4026705 L36.9046483,14.007105 C36.7312,14.0879024 36.6063753,14.2461105 36.56767,14.4333476 L33.8631346,27.5907431 C33.3756892,29.9621707 32.0033431,32.0159726 29.9991324,33.3740461 C29.9901818,33.3800938 29.973732,33.3912216 29.9466383,33.376949 C29.9193026,33.3626764 29.9190607,33.34284 29.9190607,33.3319541 L29.7294046,18.2944468 C29.7267436,18.0890666 29.6203039,17.8991686 29.4463718,17.7900679 C29.3483989,17.7286232 29.2368791,17.697417 29.1246337,17.697417 C29.0377886,17.697417 28.9502177,17.7162859 28.8689365,17.7540236 L19.1909089,22.2670659 C17.9891082,22.8275675 16.5855559,22.7661228 15.4364912,22.1020844 L1.91236267,14.2857835 L4.81356959,12.93279 L13.716039,15.6124089 C13.8580392,15.6549848 14.0111672,15.6440989 14.1459102,15.5814446 L41.1723955,2.97898689 C43.8215339,1.74356092 46.717177,1.13491949 49.5433923,1.21716833 L50.299114,1.239182 C51.083139,1.26216329 51.7493546,1.70025932 52.080769,2.41122798 C52.4124254,3.12195473 52.3200164,3.91372078 51.8335387,4.52913564 L51.8335387,4.52913564 Z"/>
    <path d="M16.9735769,3.09292573 L22.6448764,7.48404621 C22.7549447,7.56943986 22.8853333,7.61056428 23.0145124,7.61056428 C23.1952179,7.61056428 23.3739882,7.5300088 23.493249,7.37615508 C23.6979035,7.11199116 23.6495218,6.73219504 23.3853579,6.52778248 L17.7138165,2.13642009 C17.7065593,2.13061429 17.6908352,2.11876078 17.6942219,2.08997368 C17.6976086,2.06094468 17.7155099,2.05296171 17.7239767,2.04909117 C19.5056317,1.23724673 21.5011337,1.1554817 23.3432659,1.81927823 L30.0049382,4.21973485 C30.3196609,4.33294796 30.6655899,4.16990173 30.778803,3.85590468 C30.892258,3.54166573 30.7292118,3.19525296 30.4149728,3.08179794 L23.7533005,0.681341326 C21.6121697,-0.0901044226 19.2929943,0.00472365309 17.2220168,0.948408151 C16.8165784,1.13322614 16.5439477,1.50794218 16.4924212,1.95039256 C16.4413786,2.39308485 16.6213584,2.82029501 16.9735769,3.09292573 L16.9735769,3.09292573 Z"/>
  </g>
</svg>

<svg xmlns="http://www.w3.org/2000/svg" width="54" height="35"><g fill="#4C4B4B"><path d="M53.177 1.9A3.224 3.224 0 0050.335.03l-.756-.022c-3.017-.09-6.099.56-8.918 1.875L13.844 14.388l-8.902-2.68a.604.604 0 00-.43.031L.349 13.68a.605.605 0 00-.047 1.072l14.53 8.398a5.28 5.28 0 004.87.213l8.83-4.117.178 14.101a1.26 1.26 0 001.968 1.028 10.385 10.385 0 004.37-6.54l2.643-12.86 7.454-3.476c2.82-1.315 5.299-3.26 7.168-5.626l.47-.594a3.224 3.224 0 00.394-3.38zm-1.343 2.63l-.47.593c-1.753 2.218-4.08 4.044-6.73 5.28l-7.73 3.604a.605.605 0 00-.336.426l-2.705 13.158A9.182 9.182 0 0130 33.374c-.009.006-.025.017-.052.003-.028-.014-.028-.034-.028-.045l-.19-15.038a.604.604 0 00-.86-.54l-9.678 4.513a4.07 4.07 0 01-3.755-.165L1.912 14.286l2.902-1.353 8.902 2.68a.607.607 0 00.43-.032L41.172 2.98c2.65-1.235 5.545-1.844 8.371-1.762l.756.022c.784.023 1.45.461 1.782 1.172.331.711.239 1.503-.247 2.118z"/><path d="M16.974 3.093l5.67 4.391a.604.604 0 10.74-.956l-5.67-4.392c-.007-.005-.023-.017-.02-.046.004-.03.022-.037.03-.04a7.416 7.416 0 015.62-.23l6.66 2.4a.605.605 0 10.411-1.138l-6.662-2.4a8.62 8.62 0 00-6.531.266c-.405.185-.678.56-.73 1.002-.05.443.13.87.482 1.143z"/></g></svg>
